X:1     %Music
T:Flowers O' the Forest
B:Singing Together, Autumn 1973, BBC Publications
F:http://www.folkinfo.org/songs
M:4/4     %Meter
L:1/8     %
K:G
G2 G G (AB) (de) |d B (AG) F2 D2 |
w:I've heard them lilt--in'_ at the ewe_ milk-in', 
G2 G G (AB) d e |(dB) A3/2G/ G3 z |
w:Lass-es a-lilt--in' be-fore_ dawn o' day. 
(DE) =F F E F G G |D D (BA) (GE) D 
w:Now_ there's a moan--in' on il-ka green_ loan--in', 
D |D2 EG e2 d B | A2 A (B/A/) G3 |]
w:The Flow'rs o' the For-est are a' wede a--way.